src/2-landmarks/assistant--wait.svg

<svg width="1300" height="1000" viewBox="0 0 1300 1000" fill="none" xmlns="http://www.w3.org/2000/svg"><path d="M0 900h1300v100H0V900Zm880.91-18.768L895 875l-1-158s11.065-146 11.5-157c3.5-88.5 17-190 20.5-203.5s9.5-16.5 21-16.5c30 0 49.165 16.5 64 47 17.53 36.035 29 130 29 130l-10 61.5-13.84 32.65A21.897 21.897 0 0 1 996 624.5l-2.5 119 16.63 133.554c.46 3.689-2.41 6.946-6.13 6.946v16H869v-.477a20 20 0 0 1 11.91-18.291Z" fill="#000"/><path d="M881.209 886.456 902 877.94 900 717l10-141 12 141 14.5 158-15.571 6.038a15 15 0 0 0-9.546 13.019L911 900h-36v-4.29a10 10 0 0 1 6.209-9.254Z" fill="#fff"/><path d="M922.789 887.016 944 876.978l-16-160.08-13.5-156.596c3.497-142.189 12.048-190.328 17.812-206.533 2.269-6.38 9.33-8.959 16.098-8.737 13.597.447 37.553 5.812 53.59 35.185 18.68 34.206 32 136.56 32 136.56l-9.5 60.034-11.95 28.141a19.512 19.512 0 0 1-17.959 11.881.975.975 0 0 1-.969-1.084L998 576.811l7-60.034-34.658-98.088a1.452 1.452 0 0 0-2.752.917l29.973 95.776c.289.922.397 1.89.319 2.853L989 627.83l-2 115.583 15.35 128.104c.34 2.905-1.92 5.461-4.85 5.461V900H917l.069-4.112a10 10 0 0 1 5.72-8.872Z" fill="#fff"/><path d="M959.151 337.134c-3.718 1.027-10.483.921-12.243.772 0 0-7.924-.756-12.387-2.914-5.03-2.432-7.759-4.617-10.899-9.175-2.145-3.114-3.578-8.296-4.191-10.85a20.01 20.01 0 0 1-.465-3.071l-1.891-23.414s-.18-3.367.017-5.508c.467-5.094 1.424-8.025 3.911-12.516 2.555-4.612 4.646-7.018 8.863-10.248 4.496-3.444 7.641-4.846 13.187-6.17 4.306-1.029 6.896-1.231 11.316-.883 4.727.572 6.466 1.022 10.868 2.811 4.396 1.896 8.785 4.96 12.031 8.363 3.245 3.402 5.384 7.281 6.937 11.622s2.064 8.445 1.665 13c-.152 1.717-.523 3.753-.946 5.427l-6.668 22.37a22.188 22.188 0 0 1-1.211 3.205c-1.214 2.552-3.758 7.573-6.019 9.947-3.102 3.257-7.427 6.003-11.875 7.232Z" fill="#000"/><path d="M957.292 332.211c-3.128.916-8.814.841-10.293.714 0 0-6.659-.645-10.405-2.537-4.221-2.132-6.51-4.053-9.137-8.066-1.754-2.68-2.931-7.106-3.458-9.407a20.165 20.165 0 0 1-.429-3.017l-1.515-20.5s-.142-2.97.029-4.86c.407-4.496 1.219-7.085 3.322-11.053 2.16-4.077 3.924-6.205 7.478-9.067 3.788-3.05 6.436-4.296 11.101-5.48 3.623-.919 5.8-1.104 9.515-.809 3.972.492 5.433.884 9.128 2.451 3.69 1.661 7.372 4.353 10.09 7.346 2.719 2.993 4.507 6.41 5.8 10.236 1.294 3.825 1.713 7.446 1.365 11.465-.132 1.516-.45 3.313-.81 4.792l-5.618 19.589a22.281 22.281 0 0 1-1.148 3.159c-1.054 2.298-3.151 6.579-5.013 8.631-2.616 2.882-6.259 5.316-10.002 6.413Z" fill="#fff"/></svg>

<svg width="1300" height="1000" viewBox="0 0 1300 1000" fill="none" xmlns="http://www.w3.org/2000/svg">
<path d="M0 900H1300V1000H0V900Z" fill="black"/>
<path d="M880.91 881.232L895 875L894 717C894 717 905.065 571 905.5 560C909 471.5 922.5 370 926 356.5C929.5 343 935.5 340 947 340C977 340 996.165 356.5 1011 387C1028.53 423.035 1040 517 1040 517L1030 578.5L1016.16 611.15C1012.73 619.243 1004.79 624.5 996 624.5L993.5 743.5L1010.13 877.054C1010.59 880.743 1007.72 884 1004 884V900H869V899.523C869 891.606 873.67 884.434 880.91 881.232Z" fill="black"/>
<path d="M881.209 886.456L902 877.94L900 717L910 576L922 717L936.5 875L920.929 881.038C915.484 883.149 911.759 888.229 911.383 894.057L911 900H875V895.71C875 891.651 877.453 887.995 881.209 886.456Z" fill="white"/>
<path d="M922.789 887.016L944 876.978L928 716.898L914.5 560.302C917.997 418.113 926.548 369.974 932.312 353.769C934.581 347.389 941.642 344.81 948.41 345.032C962.007 345.479 985.963 350.844 1002 380.217C1020.68 414.423 1034 516.777 1034 516.777L1024.5 576.811L1012.55 604.952C1009.49 612.155 1002.42 616.833 994.591 616.833C994.009 616.833 993.557 616.327 993.622 615.749L998 576.811L1005 516.777L970.342 418.689C970.137 418.11 969.589 417.722 968.974 417.722C967.996 417.722 967.298 418.672 967.59 419.606L997.563 515.382C997.852 516.304 997.96 517.272 997.882 518.235L989 627.83L987 743.413L1002.35 871.517C1002.69 874.422 1000.43 876.978 997.5 876.978V900H917L917.069 895.888C917.132 892.083 919.35 888.644 922.789 887.016Z" fill="white"/>
<path d="M959.151 337.134C955.433 338.161 948.668 338.055 946.908 337.906C946.908 337.906 938.984 337.15 934.521 334.992C929.491 332.56 926.762 330.375 923.622 325.817C921.477 322.703 920.044 317.521 919.431 314.967C919.188 313.957 919.05 312.931 918.966 311.896L917.075 288.482C917.075 288.482 916.895 285.115 917.092 282.974C917.559 277.88 918.516 274.949 921.003 270.458C923.558 265.846 925.649 263.44 929.866 260.21C934.362 256.766 937.507 255.364 943.053 254.04C947.359 253.011 949.949 252.809 954.369 253.157C959.096 253.729 960.835 254.179 965.237 255.968C969.633 257.864 974.022 260.928 977.268 264.331C980.513 267.733 982.652 271.612 984.205 275.953C985.758 280.294 986.269 284.398 985.87 288.953C985.718 290.67 985.347 292.706 984.924 294.38L978.256 316.75C977.929 317.847 977.537 318.921 977.045 319.955C975.831 322.507 973.287 327.528 971.026 329.902C967.924 333.159 963.599 335.905 959.151 337.134Z" fill="black"/>
<path d="M957.292 332.211C954.164 333.127 948.478 333.052 946.999 332.925C946.999 332.925 940.34 332.28 936.594 330.388C932.373 328.256 930.084 326.335 927.457 322.322C925.703 319.642 924.526 315.216 923.999 312.915C923.772 311.923 923.645 310.913 923.57 309.898L922.055 289.398C922.055 289.398 921.913 286.428 922.084 284.538C922.491 280.042 923.303 277.453 925.406 273.485C927.566 269.408 929.33 267.28 932.884 264.418C936.672 261.368 939.32 260.122 943.985 258.938C947.608 258.019 949.785 257.834 953.5 258.129C957.472 258.621 958.933 259.013 962.628 260.58C966.318 262.241 970 264.933 972.718 267.926C975.437 270.919 977.225 274.336 978.518 278.162C979.812 281.987 980.231 285.608 979.883 289.627C979.751 291.143 979.433 292.94 979.073 294.419L973.455 314.008C973.146 315.087 972.775 316.146 972.307 317.167C971.253 319.465 969.156 323.746 967.294 325.798C964.678 328.68 961.035 331.114 957.292 332.211Z" fill="white"/>
</svg>
